X:1
T:Waters, 11.11.11.11.11
T:Waters, 11.11.11.11.11
T:Irish melody
T:Public Domain Courtesy of the Cyber Hymnal™
C:Irish melody
Z:Public Domain
Z:Courtesy of the Cyber Hymnal™
%%score ( 1 2 ) ( 3 4 )
L:1/8
Q:1/4=95
M:6/8
K:F
V:1 treble 
V:2 treble 
V:3 bass 
V:4 bass 
V:1
 ([Ac]/[GB]/) | A>G[CF] [DF][B,D]C | C[B,D][B,F] [A,F]2 (G/A/) | BB (A/G/) GA[A,F] | %4
 [Fc][CA][=B,F] [CG]2 ([EG]/[FA]/) | [GB][GB] ([FA]/[EG]/) [EG][FA][CF] | cA[CF] [CG]2 (F/G/) | %7
 A>G[_EF] [DF][B,D][G,C] | C[B,D][CF] [DB]2 (B/A/) | [CA]>[B,G][CF] [DF][B,D]C | %10
 C[B,D][B,F] [A,F]2 |] %11
V:2
 x | F2 x4 | x5 D | D2 C C2 x | x6 | x6 | F2 x2 B, x | C2 x4 | x5 C | x6 | x5 |] %11
V:3
 z | [F,C]2 [A,,F,] [B,,F,]2 [A,,F,] | F,2 [B,,D,] [F,,C,]2 ([B,,G,]/[A,,^F,]/) | %3
 G,F,[C,E,] E, F,2 | F,2 [D,F,] [C,E,]2 z | [C,C]3 C2 A, | [F,A,]F,[A,,F,] [C,E,]2 (D,/E,/) | %7
 [F,,F,]2 [A,,F,] [B,,F,]2 [B,,E,] | F,2 [A,,F,] D,F,[C,E,] | %9
 [F,,F,]>[G,,C,][A,,F,] [B,,F,]2 [B,,E,] | F,2 [G,,D,] [F,,F,]2 |] %11
V:4
 x | x6 | A,,B,, x4 | G,,2 F,,3 x | A,,F,, x4 | x3 F,3 | x5 C, | x6 | A,,B,, G,,2 x2 | x6 | %10
 A,,B,, x3 |] %11

